src/sources/forus-platform/resources/_platform-common/assets/img/menu/icon-dropdown-sponsor.svg

<svg width="32" height="32" viewBox="0 0 32 32" fill="none" xmlns="http://www.w3.org/2000/svg">
    <path d="M21.6331 9.65995C21.4206 9.23438 21.11 8.86544 20.7268 8.58355C20.3437 8.30167 19.899 8.11493 19.4295 8.03874C18.96 7.96255 18.4791 7.99909 18.0265 8.14535C17.5739 8.29162 17.1625 8.54341 16.8264 8.87995L16.2331 9.47328C16.1707 9.53436 16.087 9.56857 15.9997 9.56857C15.9125 9.56857 15.8287 9.53436 15.7664 9.47328L15.1731 8.87995C14.6099 8.31681 13.8461 8.00044 13.0497 8.00044C12.2533 8.00044 11.4895 8.31681 10.9264 8.87995C10.3632 9.44309 10.0469 10.2069 10.0469 11.0033C10.0469 11.7997 10.3632 12.5635 10.9264 13.1266L15.3864 17.7933C15.466 17.8755 15.5613 17.941 15.6666 17.9856C15.772 18.0303 15.8853 18.0533 15.9997 18.0533C16.1142 18.0533 16.2274 18.0303 16.3328 17.9856C16.4382 17.941 16.5335 17.8755 16.6131 17.7933L21.0731 13.1266C21.5188 12.6809 21.8127 12.1061 21.9133 11.4838C22.0138 10.8615 21.9158 10.2234 21.6331 9.65995Z" fill="#646F79"/>
    <path d="M11.0267 17.9994C10.8116 18.137 10.6555 18.3499 10.589 18.5964C10.5224 18.843 10.5501 19.1055 10.6667 19.3327L11.6667 20.9727C11.6923 21.0138 11.7095 21.0595 11.7173 21.1073C11.7251 21.1551 11.7234 21.2039 11.7122 21.251C11.7011 21.2981 11.6807 21.3425 11.6523 21.3817C11.6239 21.4209 11.588 21.4541 11.5467 21.4794C11.46 21.527 11.358 21.5383 11.263 21.5108C11.168 21.4833 11.0878 21.4193 11.04 21.3327L10.0467 19.6994C9.89963 19.4137 9.83082 19.0943 9.84721 18.7734C9.8636 18.4526 9.96462 18.1418 10.14 17.8727C10.1797 17.8136 10.2006 17.7439 10.2 17.6727V15.5594C10.2 15.2676 10.0841 14.9878 9.87783 14.7815C9.67154 14.5752 9.39175 14.4594 9.10001 14.4594C8.80827 14.4594 8.52848 14.5752 8.32219 14.7815C8.1159 14.9878 8.00001 15.2676 8.00001 15.5594V19.3327C7.99822 20.0845 8.25476 20.8141 8.72668 21.3994L10.6667 23.8594C10.7008 23.9028 10.7443 23.9379 10.794 23.9622C10.8436 23.9864 10.8981 23.9991 10.9533 23.9994H13.8733C13.9706 23.9994 14.0639 23.9607 14.1326 23.892C14.2014 23.8232 14.24 23.7299 14.24 23.6327V21.426C14.2409 20.7727 14.0458 20.134 13.68 19.5927C12.3 18.146 11.8667 17.446 11.0267 17.9994Z" fill="#646F79"/>
    <path d="M20.9726 17.9994C21.1832 18.1411 21.3337 18.3558 21.3953 18.602C21.4569 18.8482 21.425 19.1085 21.3059 19.3327L20.3326 20.9727C20.307 21.0138 20.2898 21.0595 20.282 21.1073C20.2742 21.1551 20.2759 21.2039 20.2871 21.251C20.2982 21.2981 20.3186 21.3425 20.347 21.3817C20.3754 21.4209 20.4113 21.4541 20.4526 21.4794C20.5369 21.5287 20.6371 21.543 20.7318 21.5194C20.8265 21.4957 20.9082 21.4359 20.9593 21.3527L21.9526 19.6994C22.0997 19.4137 22.1685 19.0943 22.1521 18.7734C22.1357 18.4526 22.0347 18.1418 21.8593 17.8727C21.8196 17.8136 21.7987 17.7439 21.7993 17.6727V15.5594C21.7993 15.2676 21.9152 14.9878 22.1215 14.7815C22.3277 14.5752 22.6075 14.4594 22.8993 14.4594C23.191 14.4594 23.4708 14.5752 23.6771 14.7815C23.8834 14.9878 23.9993 15.2676 23.9993 15.5594V19.3327C24.0011 20.0845 23.7445 20.8141 23.2726 21.3994L21.3326 23.8594C21.2985 23.9028 21.2549 23.9379 21.2053 23.9622C21.1557 23.9864 21.1012 23.9991 21.0459 23.9994H18.1259C18.0287 23.9994 17.9354 23.9607 17.8667 23.892C17.7979 23.8232 17.7593 23.7299 17.7593 23.6327V21.426C17.7584 20.7727 17.9535 20.134 18.3193 19.5927C19.6993 18.146 20.1326 17.446 20.9726 17.9994Z" fill="#646F79"/>
</svg>

<svg width="32" height="32" fill="none" xmlns="http://www.w3.org/2000/svg"><path d="M21.633 9.66a3 3 0 0 0-4.807-.78l-.593.593a.334.334 0 0 1-.467 0l-.593-.593a3.003 3.003 0 0 0-4.247 4.247l4.46 4.666a.854.854 0 0 0 1.227 0l4.46-4.666a3 3 0 0 0 .56-3.467ZM11.027 18a1.026 1.026 0 0 0-.36 1.333l1 1.64a.366.366 0 0 1-.12.506.374.374 0 0 1-.507-.146l-.993-1.634a1.82 1.82 0 0 1 .093-1.826c.04-.06.06-.13.06-.2v-2.114a1.1 1.1 0 1 0-2.2 0v3.774a3.28 3.28 0 0 0 .727 2.066l1.94 2.46a.367.367 0 0 0 .286.14h2.92a.367.367 0 0 0 .367-.366v-2.207c0-.653-.194-1.292-.56-1.833-1.38-1.447-1.813-2.147-2.653-1.594ZM20.973 18a1.026 1.026 0 0 1 .333 1.333l-.973 1.64a.366.366 0 0 0 .12.506.374.374 0 0 0 .506-.126l.994-1.654a1.82 1.82 0 0 0-.094-1.826.353.353 0 0 1-.06-.2v-2.114a1.1 1.1 0 1 1 2.2 0v3.774a3.28 3.28 0 0 1-.726 2.066l-1.94 2.46a.367.367 0 0 1-.287.14h-2.92a.367.367 0 0 1-.367-.366v-2.207c0-.653.194-1.292.56-1.833 1.38-1.447 1.814-2.147 2.654-1.594Z" fill="#646F79"/></svg>
